LUTs/SWT_Venice/TP_day_r709.cube
TITLE "Generated by Resolve"
LUT_3D_SIZE 9
0.012192 0.0111238 0.0126955
0.0366979 0.0261387 0.0268711
0.105562 0.0477302 0.0332494
0.249973 0.0631723 0
0.42182 0 0
0.533562 0 0
0.580865 0 0
0.594232 0 0
0.597955 0 0
0.0209812 0.0474861 0.0399786
0.0445258 0.0481727 0.0393683
0.113527 0.0644236 0.0389105
0.265583 0.0784466 0.00183108
0.448325 0.000396735 0
0.555673 0 0
0.599771 0 0
0.615793 0 0
0.630533 0 0
0 0.122698 0.057023
0.00434882 0.118257 0.0555123
0.123125 0.13138 0.0468299
0.304784 0.144106 7.62951e-05
0.530617 0.0776074 0
0.643244 0 0
0.678401 0 0
0.691905 0 0
0.708919 0 0
0 0.251408 0.0318608
0 0.249119 0.0245975
0.035462 0.28513 0
0.356497 0.324132 0
0.621668 0.323262 0
0.758267 0.28191 0
0.799435 0.241596 0
0.80708 0.224018 0
0.815198 0.233951 0
0 0.357641 0
0 0.377035 0
0 0.446159 0
0.367071 0.541192 0
0.699992 0.591669 0
0.88484 0.578851 0
0.936339 0.541909 0
0.937392 0.503502 0
0.935241 0.489311 0
0 0.399527 0
0 0.43061 0
0 0.512703 0
0.33518 0.63331 0
0.719051 0.723308 0
0.936324 0.750957 0
0.995636 0.743496 0
0.998962 0.71458 0
0.998428 0.693492 0
0 0.425254 0
0 0.474922 0
0 0.555474 0
0.352041 0.663142 0
0.71014 0.754055 0
0.933089 0.799512 0
0.999405 0.817868 0
1 0.807034 0
1 0.793393 0
0 0.430991 0
0 0.501991 0
0.00122072 0.582467 0
0.384237 0.676265 0
0.695155 0.756359 0
0.906661 0.802457 0
0.994095 0.826505 0
1 0.835935 0
1 0.832059 0
0 0.446128 0
0 0.525383 0
0.0303502 0.60415 0
0.420417 0.687221 0
0.695216 0.757076 0
0.889342 0.80032 0
0.983673 0.824445 0
1 0.837446 0
1 0.841443 0
0.0151064 0.0131533 0.0231174
0.0319066 0.0226596 0.0345006
0.0937362 0.0432593 0.0466926
0.231281 0.0613107 0.0268254
0.406882 4.57771e-05 0
0.525658 0 0
0.580301 0 0
0.59678 0 0
0.600336 0 0
0.0226596 0.0432898 0.0521859
0.0392004 0.0427558 0.0484779
0.0988785 0.0569314 0.0506905
0.238483 0.0727703 0.025391
0.422904 3.0518e-05 0
0.539406 0 0
0.591043 0 0
0.612161 0 0
0.629572 0 0
0 0.113588 0.0733654
0.00233463 0.107073 0.0681773
0.106249 0.116915 0.0618143
0.271489 0.132082 0.0200809
0.497627 0.0628367 0
0.618997 0.000274662 0
0.662699 0 0
0.68452 0 0
0.708568 0 0
0 0.240421 0.0707256
0 0.232532 0.0621195
0.0197147 0.258137 0.0316625
0.314748 0.294453 0.000106813
0.584344 0.291966 0
0.732815 0.24976 0
0.782742 0.205051 0
0.79968 0.200671 0
0.817258 0.228046 0
0 0.354345 0.00585946
0 0.3635 0.000503548
0 0.421485 0
0.313161 0.512795 0
0.659907 0.562554 0
0.856382 0.547295 0
0.919875 0.509773 0
0.930114 0.484855 0
0.935973 0.487861 0
0 0.39791 0
0 0.41944 0
0 0.493721 0
0.265126 0.613794 0
0.678309 0.707973 0
0.916243 0.737652 0
0.991302 0.729686 0
0.998062 0.707668 0
0.998947 0.697505 0
0 0.422354 0.012253
0 0.458198 0
0 0.53315 0
0.276158 0.643534 0
0.670008 0.742657 0
0.9149 0.79292 0
0.997909 0.810712 0
1 0.804349 0
1 0.796292 0
0 0.433219 0.0584115
0 0.494835 0.00749218
1.5259e-05 0.570932 0
0.334752 0.666972 0
0.667048 0.750866 0
0.892317 0.798535 0
0.99086 0.823529 0
1 0.833585 0
1 0.833478 0
0 0.452506 0.107942
0 0.528969 0.0512551
0.00663767 0.606775 0.0104067
0.393042 0.694163 0.000106813
0.682673 0.765164 0
0.88336 0.808194 0
0.979477 0.831403 0
0.999969 0.843244 0
1 0.8477 0
0.0297704 0.0160525 0.082826
0.0359808 0.0209201 0.0776684
0.0837415 0.0370947 0.0907607
0.213519 0.0561837 0.0902876
0.394903 0 0.058732
0.519234 0 0.00697337
0.577676 0 0
0.595743 0 0
0.60061 0 0
0.0179446 0.041825 0.104128
0.0350958 0.0391699 0.0909285
0.084123 0.0489052 0.0918746
0.213489 0.0665141 0.0870069
0.401083 0.000396735 0.0496376
0.52517 0 0.00167849
0.583886 0 0
0.608484 0 0
0.627817 0 0
0 0.108385 0.130404
0 0.0988479 0.11574
0.0813916 0.10576 0.109926
0.239826 0.12137 0.0963149
0.468803 0.0529641 0.0461128
0.600046 0 0
0.650492 0 0
0.676448 0 0
0.705165 0 0.000381476
0 0.232212 0.145617
0 0.218936 0.130022
0.00669871 0.235737 0.117708
0.269535 0.269261 0.0796216
0.54931 0.26685 0.002121
0.711833 0.222339 4.57771e-05
0.769589 0.169253 0
0.792279 0.175738 0
0.815213 0.221118 0
0 0.357031 0.138354
0 0.355428 0.116503
0 0.400397 0.0642863
0.239078 0.488655 0.00344854
0.620569 0.537911 0
0.830732 0.524514 0
0.905974 0.485206 0
0.921782 0.46923 0
0.933806 0.487221 0
0 0.405295 0.137774
0 0.415335 0.103777
0 0.480125 0.0221714
0.15494 0.597848 0
0.636316 0.696712 0
0.89749 0.729458 0
0.985687 0.7205 0
0.996826 0.702495 0
0.998779 0.701656 0
0 0.434226 0.186587
0 0.454322 0.151705
0 0.522042 0.0666514
0.155489 0.632151 3.0518e-05
0.625559 0.737285 0
0.894026 0.788952 0
0.995193 0.807095 0
1 0.80502 0
1 0.80351 0
0 0.450568 0.22063
0 0.502785 0.205325
0 0.575311 0.16788
0.233356 0.677272 0.0589151
0.633753 0.761929 0.00242618
0.877058 0.80975 0
0.985214 0.831556 0
1 0.840116 0
1 0.846525 0
0 0.472343 0.25272
0 0.548821 0.256428
0 0.627146 0.251423
0.33814 0.723735 0.220874
0.664286 0.79556 0.127367
0.874067 0.840543 0.0458381
0.975418 0.861555 0.010193
1 0.871641 0.00796521
1 0.876295 0.00944533
0.011841 0 0.179965
0.0283055 0 0.172595
0.0738384 0 0.186374
0.200458 0.00909438 0.207721
0.384482 0 0.188144
0.516381 0 0.156924
0.579339 0 0.128969
0.600397 0 0.112428
0.60592 0 0.114305
0.0011902 0.00987259 0.21413
0.0171054 0.00445563 0.195636
0.0747387 0.0114748 0.195361
0.197543 0.0359503 0.201556
0.382635 0 0.178454
0.516381 0 0.144366
0.581949 0 0.115999
0.608286 0 0.107195
0.630014 0 0.123873
0 0.105211 0.252949
0 0.094667 0.229709
0.0277714 0.0994278 0.229709
0.214008 0.110292 0.225162
0.446052 0.0371099 0.199969
0.584802 0 0.157031
0.641718 0 0.121462
0.674235 0 0.123201
0.708598 0 0.155138
0 0.239139 0.295445
0 0.219806 0.267796
0 0.225422 0.256565
0.215244 0.257725 0.254856
0.516579 0.2533 0.219821
0.691768 0.203586 0.166232
0.75935 0.128435 0.111574
0.789944 0.154467 0.125002
0.821195 0.227344 0.175525
0 0.380987 0.312993
0 0.369375 0.285252
0 0.399451 0.268452
0.0881971 0.481239 0.255894
0.57319 0.529 0.183825
0.800855 0.509606 0.0868696
0.888319 0.466743 0.0319066
0.91487 0.463081 0.0653849
0.935576 0.499626 0.148257
0 0.441505 0.319402
0 0.441428 0.290089
0 0.492271 0.26746
0.0305943 0.602945 0.233234
0.580987 0.707988 0.105135
0.867933 0.734905 0.000137331
0.973754 0.720073 0
0.994842 0.711498 0.00132753
0.998642 0.725139 0.0644541
0 0.467689 0.354253
0 0.476356 0.325902
0 0.5364 0.304173
0.015671 0.645075 0.268544
0.565209 0.759457 0.140459
0.866606 0.810864 0.0132296
0.987716 0.822782 0
1 0.827436 0.00404364
1 0.839155 0.0720073
0 0.48426 0.376638
0 0.527077 0.37232
0 0.597528 0.370794
0.0592355 0.706706 0.36408
0.586847 0.799664 0.313893
0.854871 0.851194 0.211734
0.976471 0.87039 0.104921
1 0.875257 0.0541848
1 0.888579 0.167452
0 0.50399 0.395575
0 0.578683 0.41503
0 0.657588 0.430961
0.226062 0.764233 0.444709
0.636316 0.839048 0.430686
0.855589 0.885328 0.405859
0.964202 0.905638 0.377401
0.999039 0.913832 0.359609
1 0.918029 0.357076
0 0 0.253071
0 0 0.249851
0.00109865 0 0.272343
0.160311 0 0.319738
0.360571 0 0.330449
0.50724 0 0.31812
0.579629 0 0.298543
0.603815 0 0.275761
0.610559 0 0.26273
0 0 0.287449
0 0 0.270314
0.000747692 0 0.281666
0.155474 0 0.319127
0.355474 0 0.325399
0.504952 0 0.309041
0.579355 0 0.28632
0.609491 0 0.270787
0.633738 0 0.2757
0 0.0890059 0.372534
0 0.07364 0.352438
4.57771e-05 0.0664378 0.351766
0.167315 0.0666972 0.386419
0.410819 0.000183108 0.373159
0.563363 0 0.339025
0.632273 0 0.30782
0.671748 0 0.30396
0.713573 0 0.32932
0 0.238331 0.436927
0 0.217227 0.414054
0 0.214282 0.409216
0.120409 0.243687 0.442969
0.480919 0.235325 0.437369
0.675303 0.176654 0.406439
0.753246 0.0945602 0.367529
0.792004 0.128466 0.365438
0.829236 0.229313 0.394003
0 0.399924 0.478233
0 0.386069 0.457969
0 0.405707 0.454246
0.00784314 0.476097 0.47892
0.514961 0.530465 0.48043
0.771359 0.508202 0.438636
0.872969 0.461143 0.394903
0.908736 0.46804 0.396185
0.93492 0.518975 0.431113
0 0.476661 0.491096
0 0.47393 0.470466
0 0.517433 0.46688
0 0.618982 0.482078
0.492638 0.738384 0.478508
0.825467 0.766964 0.428641
0.957504 0.748943 0.379568
0.98703 0.740856 0.396612
0.996384 0.75996 0.450507
0 0.500572 0.505745
0 0.504753 0.486809
0 0.560021 0.485283
0 0.667475 0.495918
0.472496 0.801022 0.489006
0.823316 0.861967 0.43595
0.972259 0.8748 0.369482
0.999176 0.875563 0.395315
1 0.885512 0.466468
0 0.513375 0.512245
0 0.552026 0.516655
0 0.619821 0.531197
0 0.730358 0.556451
0.525994 0.839063 0.559457
0.817487 0.897139 0.531441
0.958602 0.918425 0.491279
0.998245 0.923033 0.460426
1 0.931624 0.519203
0 0.531151 0.520272
0 0.60296 0.549722
0 0.6822 0.580255
0.114961 0.793912 0.622065
0.60557 0.873045 0.633295
0.833082 0.920638 0.629648
0.951553 0.939498 0.618097
0.992569 0.946975 0.608713
1 0.950439 0.607584
0 0 0.29514
0 0 0.292454
0 0 0.310307
0.122148 0 0.372961
0.335576 0 0.410468
0.496178 0 0.420356
0.576928 0 0.414084
0.604669 0 0.3953
0.613001 0 0.377188
0 0 0.333501
0 0 0.318318
0 0 0.320653
0.104875 0 0.376242
0.326604 0 0.409522
0.489784 0 0.414847
0.575006 0 0.40708
0.608957 0 0.393637
0.635584 0 0.393851
0 0.0640726 0.43476
0 0.041886 0.42002
0 0.0211185 0.417945
0.102388 0.00277714 0.467369
0.369406 0 0.468696
0.539223 0 0.458167
0.620371 0 0.439979
0.665919 0 0.438346
0.714961 0 0.462013
0 0.220951 0.509178
0 0.200107 0.493767
0 0.192462 0.497993
0.0450446 0.210422 0.553491
0.441947 0.19498 0.583154
0.653437 0.11165 0.570016
0.738705 0.0453346 0.535744
0.789837 0.0806134 0.533898
0.834806 0.21355 0.556756
0 0.397009 0.574731
0 0.378897 0.560876
0 0.390646 0.567193
6.10361e-05 0.446036 0.613825
0.449714 0.503426 0.66537
0.734325 0.481956 0.652537
0.851743 0.438911 0.618006
0.899367 0.459297 0.607401
0.931304 0.525719 0.626047
0 0.490166 0.599557
0 0.484291 0.587655
0 0.523125 0.599023
0 0.612161 0.641581
0.385824 0.739162 0.702434
0.77528 0.774334 0.696086
0.931731 0.756756 0.66244
0.974487 0.752544 0.654063
0.989776 0.778302 0.675044
0 0.514183 0.607202
0 0.517082 0.597772
0 0.570321 0.613657
0 0.670436 0.653895
0.35433 0.819181 0.712993
0.770611 0.891264 0.706249
0.947173 0.907637 0.672099
0.989517 0.907271 0.67071
0.99968 0.912505 0.702022
0 0.527047 0.60676
0 0.560555 0.618204
0 0.625559 0.645792
0 0.735164 0.701137
0.460288 0.856992 0.750881
0.781903 0.922087 0.752285
0.941649 0.944625 0.73315
0.989883 0.950881 0.713359
0.999985 0.955032 0.743282
0 0.544884 0.610407
0 0.613947 0.647623
0 0.692668 0.693019
0.0579232 0.805936 0.762264
0.576852 0.889952 0.796948
0.816114 0.937682 0.806821
0.941588 0.95697 0.805402
0.985306 0.965591 0.801114
0.999908 0.969497 0.800351
0 0 0.359274
0 0 0.34786
0 0 0.351873
0.0949264 0 0.409964
0.321935 0 0.450767
0.489326 0 0.471321
0.578439 0 0.477287
0.606455 0 0.466926
0.615473 0 0.452552
0 0.000106813 0.396658
0 0 0.373541
0 0 0.364843
0.0707408 0 0.41416
0.308309 0 0.449989
0.478584 0 0.468803
0.57348 0 0.474037
0.608438 0 0.467247
0.636957 0 0.472038
0 0.0892958 0.47013
0 0.0590829 0.458534
0 0.0229648 0.459678
0.0702373 0.00294499 0.506447
0.347677 0 0.521752
0.526711 0 0.525887
0.613489 0 0.514488
0.662547 0 0.521096
0.715145 0 0.551293
0 0.216617 0.534798
0 0.19498 0.522942
0 0.182544 0.531289
0.0180056 0.192996 0.593729
0.405997 0.172946 0.651164
0.630671 0.0797589 0.658732
0.720913 0.00874342 0.631006
0.781186 0.0361334 0.639399
0.836271 0.181064 0.671214
0 0.380743 0.602258
0 0.36286 0.594385
0 0.371099 0.609903
0 0.415518 0.667247
0.401831 0.470817 0.754299
0.703761 0.454093 0.772244
0.832639 0.402762 0.754803
0.889387 0.434058 0.748501
0.927245 0.518807 0.765988
0 0.485069 0.637507
0 0.480064 0.633433
0 0.514992 0.655619
0 0.593805 0.714931
0.310155 0.719173 0.820279
0.736507 0.755215 0.847303
0.90837 0.737499 0.838209
0.964645 0.740871 0.827054
0.985718 0.778592 0.832151
0 0.518029 0.649149
0 0.518456 0.646571
0 0.567163 0.672587
0 0.658824 0.731426
0.236164 0.812558 0.83566
0.727077 0.891737 0.86215
0.927413 0.913252 0.858625
0.981735 0.914031 0.850019
0.996612 0.92076 0.854444
0 0.531548 0.652354
0 0.56022 0.667506
0 0.622248 0.704051
0 0.727962 0.777844
0.394995 0.857755 0.852796
0.75227 0.928786 0.872343
0.927489 0.953536 0.872572
0.982574 0.962005 0.86659
0.998337 0.964965 0.871824
0 0.550301 0.658061
0 0.617716 0.699947
0 0.694224 0.75555
0.0386206 0.807507 0.832624
0.55671 0.894759 0.873167
0.802136 0.943725 0.887724
0.934295 0.963684 0.892256
0.980819 0.973297 0.892699
0.99823 0.977783 0.892882
0 0 0.407401
0 0 0.400229
0 0 0.405722
0.0819562 0 0.458656
0.322499 0 0.490776
0.490761 0 0.510948
0.584558 0 0.514382
0.622187 0 0.512947
0.625788 0 0.496956
0 0.0236667 0.450294
0 0.00238041 0.437446
0 0 0.434577
0.0705882 0 0.480766
0.322942 0 0.504173
0.491493 0 0.518074
0.585733 0 0.518578
0.624704 0 0.515679
0.649485 0 0.522957
0 0.121386 0.492088
0 0.106798 0.48864
0 0.0911879 0.502464
0.0663462 0.0720684 0.573434
0.371847 0.00523384 0.600748
0.552636 0 0.600198
0.642573 0 0.587701
0.681376 0 0.579721
0.72903 0 0.610925
0 0.222797 0.54464
0 0.209796 0.541329
0 0.207782 0.55938
0.0161288 0.23035 0.631235
0.406867 0.233188 0.695567
0.636149 0.18793 0.71899
0.748318 0.0888228 0.711711
0.790082 0.0427405 0.699611
0.843976 0.189944 0.735821
0 0.363546 0.604776
0 0.356176 0.604364
0 0.373968 0.629328
0 0.428916 0.700114
0.408667 0.48687 0.793484
0.695628 0.482048 0.822644
0.831083 0.448631 0.821576
0.884855 0.420813 0.813107
0.926452 0.51426 0.833463
0 0.471641 0.643503
0 0.476112 0.647684
0 0.516121 0.678035
0 0.600046 0.753262
0.356909 0.712581 0.855817
0.727352 0.747646 0.885893
0.895094 0.739132 0.889784
0.957382 0.723522 0.886076
0.983688 0.770962 0.890471
0 0.512535 0.657649
0 0.526619 0.665461
0 0.579019 0.699428
0 0.678096 0.776883
0.308553 0.8168 0.874372
0.728573 0.887495 0.904005
0.915831 0.908156 0.911254
0.977417 0.909972 0.910704
0.99498 0.92076 0.910414
0 0.532097 0.668132
0 0.558206 0.684581
0 0.618555 0.724605
0 0.720882 0.803113
0.350576 0.853376 0.884871
0.7337 0.927733 0.912108
0.918059 0.95407 0.920516
0.978531 0.963729 0.920958
0.996887 0.967575 0.921172
0 0.552605 0.678553
0 0.619471 0.723949
0 0.694881 0.782147
0.0305333 0.806363 0.859464
0.544442 0.895705 0.902007
0.794797 0.945113 0.921401
0.930816 0.965545 0.928435
0.978683 0.976013 0.930587
0.996643 0.980514 0.931044
0 0 0.416709
0 0 0.417502
0 0 0.432105
0.0943008 0 0.49012
0.326741 0 0.522164
0.492164 0 0.545434
0.592889 0 0.552239
0.63975 0 0.553201
0.659434 0 0.551751
0 0.0658579 0.466194
0 0.0492256 0.470832
0 0.0293736 0.490379
0.108766 0.0112001 0.557458
0.359197 0.000259403 0.578027
0.526375 0 0.588891
0.622858 0 0.587655
0.666407 0 0.583124
0.689082 0 0.585229
0 0.139696 0.503395
0 0.135531 0.510552
0 0.137179 0.536294
0.097322 0.151781 0.620096
0.411307 0.126452 0.670954
0.604746 0.0539559 0.690806
0.702174 0.00155642 0.682414
0.744686 6.10361e-05 0.672587
0.771847 0.000488289 0.679179
0 0.231144 0.551064
0 0.231983 0.560998
0 0.246983 0.590219
0.0453498 0.2916 0.67921
0.439796 0.314061 0.740978
0.657511 0.302556 0.771435
0.776959 0.268299 0.777646
0.832532 0.242283 0.77583
0.861402 0.259205 0.783627
0 0.355306 0.604166
0 0.366796 0.619471
0 0.4009 0.653544
0.00816358 0.476188 0.746105
0.454643 0.535683 0.826307
0.7122 0.547219 0.855543
0.84358 0.533333 0.86154
0.903075 0.518746 0.860761
0.931365 0.534478 0.865019
0 0.457908 0.642588
0 0.484535 0.662257
0 0.535866 0.701732
0.000534066 0.635767 0.796323
0.450721 0.732265 0.876692
0.744152 0.768109 0.902892
0.896422 0.770764 0.910872
0.959442 0.764157 0.912123
0.983032 0.773404 0.914
0 0.507103 0.659739
0 0.544503 0.684474
0 0.605051 0.728511
0 0.719234 0.819837
0.450111 0.833783 0.893965
0.757397 0.891707 0.920409
0.916442 0.911803 0.929702
0.974517 0.916747 0.93257
0.993393 0.920714 0.93344
0 0.527108 0.669123
0 0.576288 0.702342
0 0.643717 0.751751
0 0.75848 0.838437
0.468299 0.871351 0.902266
0.765042 0.931792 0.92694
0.921599 0.953948 0.936095
0.976211 0.963409 0.939086
0.995956 0.967697 0.940841
0 0.554498 0.68748
0 0.620447 0.733593
0 0.694591 0.791653
0.027039 0.804746 0.867658
0.53756 0.894438 0.9122
0.788022 0.944518 0.932006
0.927047 0.965377 0.940002
0.976883 0.976104 0.944961
0.995468 0.981048 0.946532
