LUTs/SWT_Venice/TP_day_r709.cube
TITLE "Generated by Resolve"
LUT_3D_SIZE 5
0.012192 0.0111238 0.0126955
0.105562 0.0477302 0.0332494
0.42182 0 0
0.580865 0 0
0.597955 0 0
0 0.122698 0.057023
0.123125 0.13138 0.0468299
0.530617 0.0776074 0
0.678401 0 0
0.708919 0 0
0 0.357641 0
0 0.446159 0
0.699992 0.591669 0
0.936339 0.541909 0
0.935241 0.489311 0
0 0.425254 0
0 0.555474 0
0.71014 0.754055 0
0.999405 0.817868 0
1 0.793393 0
0 0.446128 0
0.0303502 0.60415 0
0.695216 0.757076 0
0.983673 0.824445 0
1 0.841443 0
0.0297704 0.0160525 0.082826
0.0837415 0.0370947 0.0907607
0.394903 0 0.058732
0.577676 0 0
0.60061 0 0
0 0.108385 0.130404
0.0813916 0.10576 0.109926
0.468803 0.0529641 0.0461128
0.650492 0 0
0.705165 0 0.000381476
0 0.357031 0.138354
0 0.400397 0.0642863
0.620569 0.537911 0
0.905974 0.485206 0
0.933806 0.487221 0
0 0.434226 0.186587
0 0.522042 0.0666514
0.625559 0.737285 0
0.995193 0.807095 0
1 0.80351 0
0 0.472343 0.25272
0 0.627146 0.251423
0.664286 0.79556 0.127367
0.975418 0.861555 0.010193
1 0.876295 0.00944533
0 0 0.253071
0.00109865 0 0.272343
0.360571 0 0.330449
0.579629 0 0.298543
0.610559 0 0.26273
0 0.0890059 0.372534
4.57771e-05 0.0664378 0.351766
0.410819 0.000183108 0.373159
0.632273 0 0.30782
0.713573 0 0.32932
0 0.399924 0.478233
0 0.405707 0.454246
0.514961 0.530465 0.48043
0.872969 0.461143 0.394903
0.93492 0.518975 0.431113
0 0.500572 0.505745
0 0.560021 0.485283
0.472496 0.801022 0.489006
0.972259 0.8748 0.369482
1 0.885512 0.466468
0 0.531151 0.520272
0 0.6822 0.580255
0.60557 0.873045 0.633295
0.951553 0.939498 0.618097
1 0.950439 0.607584
0 0 0.359274
0 0 0.351873
0.321935 0 0.450767
0.578439 0 0.477287
0.615473 0 0.452552
0 0.0892958 0.47013
0 0.0229648 0.459678
0.347677 0 0.521752
0.613489 0 0.514488
0.715145 0 0.551293
0 0.380743 0.602258
0 0.371099 0.609903
0.401831 0.470817 0.754299
0.832639 0.402762 0.754803
0.927245 0.518807 0.765988
0 0.518029 0.649149
0 0.567163 0.672587
0.236164 0.812558 0.83566
0.927413 0.913252 0.858625
0.996612 0.92076 0.854444
0 0.550301 0.658061
0 0.694224 0.75555
0.55671 0.894759 0.873167
0.934295 0.963684 0.892256
0.99823 0.977783 0.892882
0 0 0.416709
0 0 0.432105
0.326741 0 0.522164
0.592889 0 0.552239
0.659434 0 0.551751
0 0.139696 0.503395
0 0.137179 0.536294
0.411307 0.126452 0.670954
0.702174 0.00155642 0.682414
0.771847 0.000488289 0.679179
0 0.355306 0.604166
0 0.4009 0.653544
0.454643 0.535683 0.826307
0.84358 0.533333 0.86154
0.931365 0.534478 0.865019
0 0.507103 0.659739
0 0.605051 0.728511
0.450111 0.833783 0.893965
0.916442 0.911803 0.929702
0.993393 0.920714 0.93344
0 0.554498 0.68748
0 0.694591 0.791653
0.53756 0.894438 0.9122
0.927047 0.965377 0.940002
0.995468 0.981048 0.946532
