LUTs/SWT_Venice/TP_day_r709.cube
TITLE "Generated by Resolve"
LUT_3D_SIZE 33
0.012192 0.0111238 0.0126955
0.0170748 0.014725 0.0166476
0.0223087 0.018204 0.0202945
0.0281834 0.0216373 0.0235752
0.0366979 0.0261387 0.0268711
0.0482795 0.0309606 0.0297856
0.0632486 0.036408 0.0323339
0.0821088 0.0421302 0.0336309
0.105562 0.0477302 0.0332494
0.134157 0.0532692 0.0303655
0.167834 0.058732 0.0213626
0.206378 0.0630045 0.00759899
0.249973 0.0631723 0
0.297169 0.0542611 0
0.344427 0.0188754 0
0.384848 0.00306706 0
0.42182 0 0
0.455604 0 0
0.485206 0 0
0.511177 0 0
0.533562 0 0
0.550332 0 0
0.563867 0 0
0.57319 0 0
0.580865 0 0
0.58674 0 0
0.590738 0 0
0.593118 0 0
0.594232 0 0
0.595163 0 0
0.596063 0 0
0.596918 0 0
0.597955 0 0
0.0190738 0.0187839 0.0206302
0.0213626 0.0199893 0.0218357
0.0251774 0.0220493 0.0236667
0.0302434 0.0247044 0.0258793
0.0382696 0.0285344 0.0283207
0.0493172 0.0328985 0.0310369
0.0641184 0.0382544 0.0332799
0.0829328 0.0437781 0.0343633
0.105913 0.049073 0.0340887
0.134279 0.0546273 0.0312657
0.16788 0.06009 0.0222171
0.206241 0.0642557 0.00877394
0.249073 0.0645609 0
0.295842 0.0545663 0
0.342657 0.0224918 0
0.382925 0.00288396 0
0.419059 0 0
0.452628 0 0
0.482719 0 0
0.509026 0 0
0.531533 0 0
0.549081 0 0
0.563256 0 0
0.572534 0 0
0.580194 0 0
0.586236 0 0
0.590433 0 0
0.59292 0 0
0.594293 0 0
0.595544 0 0
0.597223 0 0
0.599481 0 0
0.601907 0 0
0.0232547 0.026154 0.0267491
0.0247959 0.0263371 0.0269474
0.028275 0.0276188 0.027863
0.0330663 0.0296483 0.0293431
0.0405127 0.0326848 0.0311131
0.0508736 0.0366827 0.0334783
0.0658427 0.0416266 0.0349584
0.0847944 0.0468605 0.0356909
0.10753 0.0520943 0.0352789
0.136233 0.0576333 0.0323186
0.170245 0.0629282 0.0233005
0.208545 0.0670634 0.00981155
0.251637 0.0670481 0.000228885
0.300084 0.0560464 0
0.347021 0.0267033 0
0.389593 0.00250248 0
0.42594 0.000106813 0
0.45893 0 0
0.488121 0 0
0.513588 0 0
0.535088 0 0
0.552102 0 0
0.565469 0 0
0.574838 0 0
0.582345 0 0
0.588418 0 0
0.592813 0 0
0.59588 0 0
0.598428 0 0
0.600855 0 0
0.603296 0 0
0.605737 0 0
0.608148 0 0
0.0256809 0.035462 0.0334783
0.027451 0.0349126 0.033051
0.0310369 0.0356298 0.0332036
0.0358587 0.0368658 0.0339513
0.0428016 0.039353 0.0349584
0.0531167 0.0424048 0.0364538
0.0678264 0.0469215 0.0373236
0.0865949 0.0516823 0.0375982
0.109987 0.0568856 0.0367132
0.139269 0.0624552 0.0334936
0.173831 0.0677501 0.0243687
0.213306 0.0717479 0.0108492
0.257984 0.0713207 0.00106813
0.306493 0.059678 0
0.355169 0.0310979 0
0.398733 0.00282292 0
0.434806 0.000320439 0
0.468101 0 0
0.496834 0 0
0.521889 0 0
0.543084 0 0
0.559625 0 0
0.572869 0 0
0.582544 0 0
0.58999 0 0
0.595712 0 0
0.599771 0 0
0.602792 0 0
0.605447 0 0
0.608148 0 0
0.611093 0 0
0.614115 0 0
0.617578 0 0
0.0209812 0.0474861 0.0399786
0.0250706 0.0463569 0.0392462
0.0314031 0.0461891 0.0389868
0.0372473 0.0467079 0.0390936
0.0445258 0.0481727 0.0393683
0.0552377 0.0509041 0.0399481
0.0701457 0.0549172 0.0402991
0.0894026 0.0593881 0.040177
0.113527 0.0644236 0.0389105
0.143099 0.0700084 0.035523
0.178088 0.0753185 0.0264134
0.219165 0.0791485 0.0122072
0.265583 0.0784466 0.00183108
0.315892 0.066804 0
0.366613 0.039292 0
0.411429 0.0047303 0
0.448325 0.000396735 0
0.481376 0 0
0.510353 0 0
0.535195 0 0
0.555673 0 0
0.571649 0 0
0.583505 0 0
0.592828 0 0
0.599771 0 0
0.605081 0 0
0.609018 0 0
0.612482 0 0
0.615793 0 0
0.619242 0 0
0.622675 0 0
0.626307 0 0
0.630533 0 0
0.00874342 0.0618448 0.0456092
0.0133669 0.0602579 0.0448615
0.0228275 0.059617 0.0444648
0.033463 0.0597238 0.0442817
0.0437171 0.0604105 0.0440833
0.0565042 0.0627756 0.0440223
0.0720073 0.0661479 0.0439612
0.0917525 0.0700389 0.0432898
0.117082 0.0749065 0.0415198
0.14757 0.0801709 0.0375677
0.183444 0.0854353 0.028275
0.225818 0.0888838 0.0129397
0.274235 0.0880598 0.00209049
0.326741 0.0779736 0
0.380026 0.0519265 0
0.427619 0.0106813 0
0.46598 0.000320439 0
0.499809 0 0
0.528069 0 0
0.552361 0 0
0.572549 0 0
0.588067 0 0
0.599176 0 0
0.607309 0 0
0.613733 0 0
0.618448 0 0
0.622675 0 0
0.62681 0 0
0.630823 0 0
0.634623 0 0
0.638148 0 0
0.642008 0 0
0.646433 0 0
0.00108339 0.0789044 0.0504921
0.00323491 0.0769055 0.0498207
0.00900282 0.076051 0.0493782
0.0193027 0.0758221 0.0490272
0.0345922 0.0762341 0.048661
0.0535897 0.0780041 0.0480812
0.0724804 0.0806592 0.0475319
0.0935683 0.0840467 0.0462959
0.120394 0.088838 0.0438544
0.152056 0.0937362 0.0393225
0.18883 0.09897 0.0296941
0.233005 0.102205 0.0122683
0.283604 0.10132 0.00151064
0.338491 0.092958 0
0.394278 0.0694438 0
0.445151 0.028397 0
0.487068 0 0
0.521431 0 0
0.549523 0 0
0.573419 0 0
0.592584 0 0
0.607294 0 0
0.617945 0 0
0.626123 0 0
0.6327 0 0
0.637125 0 0
0.641032 0 0
0.644862 0 0
0.648539 0 0
0.652125 0 0
0.655467 0 0
0.659358 0 0
0.664454 0 0
0 0.09897 0.0543984
6.10361e-05 0.096437 0.0538033
0.00111391 0.095201 0.0534371
0.00569161 0.0946975 0.053193
0.0175479 0.0953384 0.0527047
0.0400092 0.097261 0.0519875
0.0683757 0.099733 0.0508736
0.0937667 0.102937 0.0491493
0.122805 0.107408 0.0461128
0.156435 0.111894 0.0407568
0.194812 0.117052 0.0289769
0.240803 0.120363 0.00944533
0.293645 0.119783 0.000411994
0.351034 0.112734 0
0.40914 0.0952468 0
0.46331 0.0634012 0
0.509773 0.0209354 0
0.545922 0.000961318 0
0.5738 0 0
0.597147 0 0
0.615793 0 0
0.629999 0 0
0.640208 0 0
0.647684 0 0
0.654185 0 0
0.658808 0 0
0.662043 0 0
0.66537 0 0
0.669093 0 0
0.67274 0 0
0.676387 0 0
0.680323 0 0
0.685054 0 0
0 0.122698 0.057023
0 0.119692 0.0565652
0 0.118059 0.0562142
0.000350958 0.117723 0.0559548
0.00434882 0.118257 0.0555123
0.0199741 0.120562 0.0547646
0.0523842 0.12372 0.0533303
0.0896315 0.127199 0.0507515
0.123125 0.13138 0.0468299
0.15964 0.135683 0.0396582
0.200534 0.140505 0.0222019
0.249256 0.143832 0.00541695
0.304784 0.144106 7.62951e-05
0.364828 0.138903 0
0.425086 0.127062 0
0.48127 0.107073 0
0.530617 0.0776074 0
0.571115 0.0451362 0
0.601663 0.0245823 0
0.625299 0.0053254 0
0.643244 0 0
0.656809 0 0
0.666453 0 0
0.672984 0 0
0.678401 0 0
0.682277 0 0
0.686061 0 0
0.688975 0 0
0.691905 0 0
0.695445 0 0
0.699443 0 0
0.703746 0 0
0.708919 0 0
0 0.150744 0.057969
0 0.14725 0.0576791
0 0.145617 0.0572366
0 0.144747 0.056733
0.000137331 0.14548 0.0561379
0.00553903 0.148043 0.0551614
0.028809 0.151949 0.0533455
0.074815 0.156619 0.0497444
0.120027 0.161242 0.0437629
0.160555 0.166232 0.0324102
0.206317 0.171328 0.012726
0.258579 0.175204 0.00244144
0.317403 0.176532 4.57771e-05
0.380392 0.17351 0
0.44271 0.165942 0
0.500267 0.154284 0
0.55111 0.13785 0
0.593408 0.115038 0
0.626627 0.0930953 0
0.6533 0.0712596 0
0.67335 0.050309 0
0.687922 0.0326085 0
0.698177 0.017731 0
0.704768 0.00569161 0
0.709377 0 0
0.712978 0 0
0.71603 0 0
0.71873 0 0
0.721813 0 0
0.725063 0.000381476 0
0.728679 0.00155642 0
0.732723 0.00373846 0
0.738262 0.00714122 0
0 0.182315 0.0560006
0 0.178485 0.0560769
0 0.176547 0.0556649
0 0.175937 0.0548409
0 0.177066 0.0535592
0.000381476 0.179873 0.0517891
0.00999466 0.184543 0.0485237
0.0463264 0.191379 0.0413214
0.104021 0.197299 0.0308843
0.157427 0.203754 0.016495
0.210483 0.209949 0.00460822
0.267826 0.215198 0.00062562
0.331044 0.217487 0
0.397726 0.216526 0
0.462776 0.212131 0
0.522133 0.204623 0
0.573693 0.195346 0
0.616083 0.183307 0
0.651072 0.16875 0
0.679179 0.151492 0
0.700999 0.129519 0
0.717098 0.110964 0
0.728191 0.0929274 0
0.735592 0.0757916 0
0.740505 0.0620127 0
0.744656 0.0526589 0
0.747616 0.0464637 0
0.749737 0.0436561 0
0.752026 0.0439307 0
0.754665 0.0475776 0
0.75729 0.0542916 0
0.760342 0.0645457 0
0.764355 0.0776379 0
0 0.216297 0.0486458
0 0.212238 0.0493477
0 0.210361 0.0487068
0 0.210529 0.0470893
0 0.212039 0.0445563
0 0.215656 0.0404212
0.00131228 0.221881 0.0337835
0.0170443 0.230594 0.0225986
0.0711376 0.239506 0.0107729
0.145693 0.24773 0.00201419
0.210513 0.255634 7.62951e-05
0.275425 0.262608 0
0.344671 0.267231 0
0.415763 0.268849 0
0.483803 0.267109 0
0.545281 0.263005 0
0.597742 0.25626 0
0.640909 0.247456 0
0.676951 0.236744 0
0.70605 0.223545 0
0.728435 0.208698 0
0.745159 0.195041 0
0.756558 0.181521 0
0.763867 0.16788 0
0.768734 0.154742 0
0.773068 0.145678 0
0.775631 0.138216 0
0.777279 0.13608 0
0.778805 0.137118 0
0.780362 0.140047 0
0.782345 0.145861 0
0.784909 0.154086 0
0.788296 0.16318 0
0 0.251408 0.0318608
0 0.247227 0.0331579
0 0.245747 0.0311131
0 0.246769 0.0285344
0 0.249119 0.0245975
0 0.254353 0.0176852
0 0.262119 0.0103914
0.00509651 0.272969 0.00321965
0.035462 0.28513 0
0.11751 0.297169 0
0.204883 0.307393 0
0.279622 0.317037 0
0.356497 0.324132 0
0.43238 0.328923 0
0.503777 0.330434 0
0.567391 0.328542 0
0.621668 0.323262 0
0.667247 0.315755 0
0.704402 0.306371 0
0.734936 0.294728 0
0.758267 0.28191 0
0.77583 0.269535 0
0.78735 0.258793 0
0.7944 0.249317 0
0.799435 0.241596 0
0.802853 0.234104 0
0.805112 0.228428 0
0.806439 0.225772 0
0.80708 0.224018 0
0.80827 0.224338 0
0.809857 0.226139 0
0.812009 0.229328 0
0.815198 0.233951 0
0 0.285115 0.00218204
0 0.281102 0.00531014
0 0.280644 0.00479133
0 0.283162 0.00143435
0 0.287205 0
0 0.293873 1.5259e-05
0 0.303914 4.57771e-05
0.000350958 0.31696 6.10361e-05
0.0145113 0.331899 0
0.0743114 0.348043 0
0.186954 0.362341 0
0.279271 0.374319 0
0.365026 0.384176 0
0.446357 0.391699 0
0.521935 0.395987 0
0.588464 0.396979 0
0.645289 0.394202 0
0.69337 0.387869 0
0.733684 0.379446 0
0.765332 0.36846 0
0.7906 0.356786 0
0.809949 0.344869 0
0.822263 0.334218 0
0.82977 0.324712 0
0.834455 0.316152 0
0.8374 0.308583 0
0.839002 0.302052 0
0.839094 0.296681 0
0.839307 0.293538 0
0.839811 0.29163 0
0.840955 0.291875 0
0.842527 0.29337 0
0.845029 0.296391 0
0 0.315022 0.000198367
0 0.31162 0.000595102
0 0.312886 0.000396735
0 0.316854 7.62951e-05
0 0.322072 0
0 0.330159 0
0 0.342123 0
0 0.357473 0
0.00111391 0.375937 0
0.0324407 0.396048 0
0.151644 0.414252 0
0.275166 0.430091 0
0.3691 0.443412 0
0.456519 0.454551 0
0.537011 0.463401 0
0.606683 0.466651 0
0.666621 0.465675 0
0.718563 0.461021 0
0.762203 0.45391 0
0.796475 0.444205 0
0.824796 0.433417 0
0.84564 0.421637 0
0.858625 0.411063 0
0.866712 0.40145 0
0.871122 0.391821 0
0.873625 0.38349 0
0.874678 0.374975 0
0.874174 0.367941 0
0.873411 0.362417 0
0.873579 0.359533 0
0.873854 0.357992 0
0.87451 0.357824 0
0.876265 0.359792 0
0 0.338582 0
0 0.335424 0
0 0.338643 0
0 0.344564 0
0 0.351675 0
0 0.362005 0
0 0.376349 0
0 0.393957 0
0.000106813 0.415076 0
0.0249027 0.438071 0
0.118593 0.461158 0
0.267536 0.479561 0
0.369436 0.497917 0
0.461646 0.512322 0
0.546441 0.523095 0
0.620554 0.529656 0
0.684703 0.531823 0
0.740505 0.529824 0
0.78764 0.524498 0
0.825803 0.517555 0
0.857038 0.5084 0
0.879011 0.498695 0
0.893431 0.488685 0
0.902541 0.479118 0
0.907103 0.469352 0
0.908873 0.459312 0
0.909743 0.449607 0
0.908782 0.440665 0
0.907729 0.433845 0
0.906737 0.428611 0
0.906371 0.425879 0
0.906371 0.424536 0
0.907179 0.424796 0
0 0.357641 0
0 0.3552 0
0 0.35967 0
0 0.367544 0
0 0.377035 0
0 0.389212 0
0 0.404868 0
0 0.423804 0
0 0.446159 0
0.0176699 0.471 0
0.0947585 0.496925 0
0.248966 0.52076 0
0.367071 0.541192 0
0.463157 0.560494 0
0.5523 0.575387 0
0.630716 0.585733 0
0.699992 0.591669 0
0.759716 0.593194 0
0.810162 0.591028 0
0.852277 0.586282 0
0.88484 0.578851 0
0.907591 0.570001 0
0.922118 0.560861 0
0.931334 0.551476 0
0.936339 0.541909 0
0.93872 0.531746 0
0.939574 0.521233 0
0.938521 0.511574 0
0.937392 0.503502 0
0.93608 0.497704 0
0.935134 0.493355 0
0.934783 0.490471 0
0.935241 0.489311 0
0 0.372824 0
0 0.371252 0
0 0.375921 0
0 0.385397 0
0 0.396002 0
0 0.409155 0
0 0.426017 0
0 0.446616 0
0 0.470344 0
0.0096437 0.497017 0
0.0738384 0.525017 0
0.224247 0.552178 0
0.359014 0.576349 0
0.461448 0.5991 0
0.554177 0.618708 0
0.636835 0.632456 0
0.709957 0.640665 0
0.773053 0.644236 0
0.826108 0.644236 0
0.870756 0.641749 0
0.906493 0.637781 0
0.930388 0.632334 0
0.945617 0.625269 0
0.955062 0.616876 0
0.960311 0.608545 0
0.963195 0.599954 0
0.964355 0.590234 0
0.963272 0.578836 0
0.961822 0.568353 0
0.960296 0.561212 0
0.959258 0.555795 0
0.958694 0.551781 0
0.958495 0.548486 0
0 0.384054 0
0 0.382757 0
0 0.387518 0
0 0.397925 0
0 0.409857 0
0 0.424323 0
0 0.441855 0
0 0.46363 0
0 0.488579 0
0.0028687 0.51667 0
0.057969 0.546746 0
0.201266 0.575494 0
0.34992 0.601968 0
0.456794 0.627634 0
0.553094 0.649317 0
0.639002 0.665873 0
0.716625 0.676982 0
0.782681 0.683635 0
0.838453 0.686519 0
0.884978 0.686793 0
0.921813 0.685695 0
0.946487 0.683101 0
0.962798 0.678477 0
0.972641 0.671565 0
0.978134 0.662959 0
0.981109 0.653758 0
0.982406 0.644358 0
0.982422 0.635081 0
0.981689 0.62594 0
0.98027 0.618235 0
0.979446 0.61265 0
0.978714 0.607599 0
0.978759 0.604364 0
0 0.392309 0
0 0.391135 0
0 0.396078 0
0 0.40766 0
0 0.420859 0
0 0.4365 0
0 0.454536 0
0 0.476631 0
0 0.502007 0
0 0.530739 0
0.050248 0.561639 0
0.184695 0.592126 0
0.342229 0.620325 0
0.450965 0.647959 0
0.55053 0.671641 0
0.639414 0.690074 0
0.719539 0.703975 0
0.788113 0.713512 0
0.846326 0.719463 0
0.894286 0.722789 0
0.931197 0.723552 0
0.957351 0.72224 0
0.974517 0.719249 0
0.984314 0.71426 0
0.989715 0.707637 0
0.992523 0.699992 0
0.993835 0.691279 0
0.994492 0.682734 0
0.994522 0.67512 0
0.993255 0.667094 0
0.99266 0.660868 0
0.992157 0.655772 0
0.991974 0.651698 0
0 0.399527 0
0 0.39855 0
0 0.402975 0
0 0.416617 0
0 0.43061 0
0 0.446937 0
0 0.46537 0
0 0.487404 0
0 0.512703 0
0 0.541344 0
0.0472725 0.572869 0
0.174304 0.604181 0
0.33518 0.63331 0
0.44567 0.661891 0
0.546349 0.687099 0
0.637491 0.707973 0
0.719051 0.723308 0
0.789548 0.734737 0
0.849928 0.742763 0
0.89897 0.747875 0
0.936324 0.750957 0
0.963684 0.751644 0
0.981735 0.750652 0
0.990845 0.747631 0
0.995636 0.743496 0
0.997681 0.737911 0
0.998474 0.730343 0
0.998871 0.721935 0
0.998962 0.71458 0
0.99855 0.70753 0
0.998367 0.701503 0
0.998352 0.697154 0
0.998428 0.693492 0
0 0.406271 0
0 0.405158 0
0 0.409796 0
0 0.424994 0
0 0.440681 0
0 0.457191 0
0 0.475959 0
0 0.497368 0
0 0.522316 0
0 0.551034 0
0.0493324 0.582498 0
0.176486 0.613504 0
0.331914 0.642878 0
0.442496 0.671382 0
0.542412 0.697505 0
0.635416 0.720241 0
0.717021 0.736431 0
0.788678 0.749157 0
0.850568 0.75877 0
0.900404 0.765728 0
0.938323 0.770748 0
0.966659 0.773846 0
0.985489 0.774929 0
0.994141 0.773449 0
0.998016 0.771054 0
0.99939 0.76704 0
0.999756 0.760662 0
0.999878 0.753292 0
0.999924 0.746715 0
0.999893 0.740902 0
0.999878 0.7355 0
0.999908 0.7308 0
0.999969 0.727123 0
0 0.414115 0
0 0.413306 0
0 0.418341 0
0 0.435126 0
0 0.452308 0
0 0.46891 0
0 0.487556 0
0 0.508492 0
0 0.53286 0
3.0518e-05 0.560922 0
0.0617838 0.591272 0
0.193072 0.621073 0
0.33518 0.650004 0
0.442252 0.67866 0
0.540993 0.70489 0
0.634455 0.728191 0
0.714855 0.745327 0
0.787198 0.759121 0
0.849607 0.770153 0
0.899672 0.778607 0
0.938064 0.784634 0
0.967041 0.789197 0
0.986374 0.792157 0
0.99585 0.792645 0
0.998886 0.791501 0
0.999817 0.788663 0
1 0.783703 0
1 0.777676 0
1 0.771939 0
1 0.766918 0
1 0.761975 0
1 0.757977 0
1 0.754696 0
0 0.420554 0
0 0.420111 0
0 0.426505 0
0 0.446433 0
0 0.465019 0
0 0.481529 0
0 0.500877 0
0 0.521385 0
0 0.544625 0
0.000396735 0.571633 0
0.0723888 0.600351 0
0.207187 0.628809 0
0.342336 0.656886 0
0.44593 0.684352 0
0.541955 0.709987 0
0.633036 0.733135 0
0.712505 0.751003 0
0.784527 0.765652 0
0.846922 0.777752 0
0.897246 0.787076 0
0.936278 0.794034 0
0.965576 0.799344 0
0.985092 0.803281 0
0.996536 0.80589 0
0.999344 0.806912 0
0.999939 0.804868 0
1 0.801205 0
1 0.796536 0
1 0.791501 0
1 0.78706 0
1 0.782788 0
1 0.779431 0
1 0.776486 0
0 0.425254 0
0 0.425483 0
0 0.4336 0
0 0.454871 0
0 0.474922 0
0 0.492882 0
0 0.512016 0
0 0.532708 0
0 0.555474 0
0.00494392 0.582071 0
0.0842603 0.609323 0
0.221622 0.636408 0
0.352041 0.663142 0
0.451453 0.689128 0
0.544137 0.714061 0
0.631464 0.736019 0
0.71014 0.754055 0
0.78114 0.769574 0
0.842145 0.78172 0
0.892836 0.791562 0
0.933089 0.799512 0
0.962982 0.805783 0
0.982727 0.810559 0
0.995422 0.814191 0
0.999405 0.817868 0
0.999954 0.816907 0
1 0.814267 0
1 0.810742 0
1 0.807034 0
1 0.803326 0
1 0.799542 0
1 0.796048 0
1 0.793393 0
0 0.428107 0
0 0.429038 0
0 0.439307 0
0 0.461952 0
0 0.482856 0
0 0.502037 0
0 0.520714 0
0 0.541497 0
0 0.564904 0
0.0114595 0.590295 0
0.110262 0.616403 0
0.244602 0.642176 0
0.361547 0.667582 0
0.456565 0.692638 0
0.545693 0.716701 0
0.629786 0.738231 0
0.706691 0.756024 0
0.776501 0.770977 0
0.836713 0.783459 0
0.887114 0.793759 0
0.927871 0.802335 0
0.95874 0.809277 0
0.979919 0.814603 0
0.993332 0.819013 0
0.998947 0.823285 0
0.999847 0.825284 0
1 0.824094 0
1 0.821851 0
1 0.818967 0
1 0.815671 0
1 0.812802 0
1 0.809735 0
1 0.806973 0
0 0.429572 0
0 0.431708 0
0 0.445487 0
0 0.468971 0
0 0.489891 0
0 0.509087 0
0 0.527733 0
0 0.548531 0
0 0.571496 0
0.0167391 0.596323 0
0.136492 0.621714 0
0.264118 0.646387 0
0.369406 0.670939 0
0.459983 0.695293 0
0.545281 0.718318 0
0.626749 0.738735 0
0.701534 0.756298 0
0.769589 0.770947 0
0.829358 0.783642 0
0.879927 0.794125 0
0.920592 0.802823 0
0.952117 0.810056 0
0.975235 0.816037 0
0.990524 0.821103 0
0.998322 0.825315 0
0.999771 0.828351 0
1 0.829419 0
1 0.829023 0
1 0.827512 0
1 0.825391 0
1 0.82327 0
1 0.820706 0
1 0.818189 0
0 0.430304 0
0 0.434592 0
0 0.452598 0
0 0.475929 0
0 0.496223 0
0 0.515084 0
0 0.534096 0
0 0.554757 0
0 0.577066 0
